icon-themes/sifr_svg/cmd/sc_reload.svg

<svg viewBox="0 0 16 16" xmlns="http://www.w3.org/2000/svg"><path d="m8 2a6 6 0 0 0 -6 6h2a4 4 0 0 1 4-4 4 4 0 0 1 4 4 4 4 0 0 1 -4 4h-2.6835938l.3710938-.28125c.18267-.190301.3125-.46186.3125-.71875v-1h-.4121094-.5878906c-.30945 0-.55232.0903-.75.28125-1.41667 1.073009-1.83333 1.71875-3.25 2.71875l3.25 2.71875c.19768.19095.44055.28125.75.28125h.5878906.4121094v-1c0-.256892-.12983-.528462-.3125-.71875l-.3710938-.28125h2.6835938a6 6 0 0 0 6-6 6 6 0 0 0 -6-6z" fill="#555753"/></svg>

<svg xmlns="http://www.w3.org/2000/svg" viewBox="0 0 16 16">
  <path
     style="fill:#555753"
     d="M 8 2 A 6 6 0 0 0 2 8 L 4 8 A 4 4 0 0 1 8 4 A 4 4 0 0 1 12 8 A 4 4 0 0 1 8 12 L 5.3164062 12 L 5.6875 11.71875 C 5.87017 11.528449 6 11.25689 6 11 L 6 10 L 5.5878906 10 L 5 10 C 4.69055 10 4.44768 10.0903 4.25 10.28125 C 2.83333 11.354259 2.41667 12 1 13 L 4.25 15.71875 C 4.44768 15.9097 4.69055 16 5 16 L 5.5878906 16 L 6 16 L 6 15 C 6 14.743108 5.87017 14.471538 5.6875 14.28125 L 5.3164062 14 L 8 14 A 6 6 0 0 0 14 8 A 6 6 0 0 0 8 2 z "
     />
</svg>
